X: 20974
T: Jug Of Punch, The
R: reel
M: 4/4
K: Ddorian
|:A,DDC DEFG|AG~G2 AcGF|EA,A,B, CDEF|G2AG FDEC|
A,DDE FDDE|FDED CDEG|cded cAGE|1 FGEF D2DG,:|2 FGEF D2 (3EFG||
|:Adde ~f3d|efed cAAG|A2AB ~c3d|eaag edcA|
~d3e f2fd|efed cAAB|~c3A B2AG|1 FGEF D2 (3EFG:|2 FGEF D2DG,||

